Front-end/assets/images/icons/img_doc.svg

<svg width="48" height="48" viewBox="0 0 48 48" fill="none" xmlns="http://www.w3.org/2000/svg">
<path fill-rule="evenodd" clip-rule="evenodd" d="M22 8H11.9909L12 40L35.9957 40C35.9957 40 36.0002 28.3434 36.0001 22H24C22.8954 22 22 21.1046 22 20V8ZM26 18H36L26 8V18ZM11.9909 4H26.6056C27.1574 4 27.9236 4.31898 28.3067 4.7022L39.2981 15.6977C39.6857 16.0855 40 16.8559 40 17.3985V40.0015C40 42.2098 38.211 44 35.9957 44H12.0043C9.79277 44 8 42.2036 8 40V8.00003C8 5.79087 9.79176 4 11.9909 4ZM30.9626 30C29.3057 30 27.9626 28.6569 27.9626 27C27.9626 25.3431 29.3057 24 30.9626 24C32.6194 24 33.9626 25.3431 33.9626 27C33.9626 28.6569 32.6194 30 30.9626 30ZM17.8912 27.9448C18.3461 26.9335 19.2647 26.8239 19.9367 27.6918L22.8188 31.4145C23.4936 32.2861 24.7568 32.4702 25.6554 31.8146L26.2334 31.3929C27.1252 30.7423 28.3269 30.9755 28.9113 31.9041L31.6846 36.3107C32.2717 37.2437 31.8519 38 30.7468 38H15.3696C14.2645 38 13.7361 37.183 14.1923 36.1688L17.8912 27.9448Z" fill="#DADADA"/>
</svg>

<svg width="48" height="48" fill="none" xmlns="http://www.w3.org/2000/svg"><path fill-rule="evenodd" clip-rule="evenodd" d="M22 8H11.99L12 40h23.996S36 28.343 36 22H24a2 2 0 01-2-2V8zm4 10h10L26 8v10zM11.99 4h14.616c.551 0 1.318.319 1.7.702l10.992 10.996c.388.387.702 1.158.702 1.7v22.604A3.999 3.999 0 0135.996 44H12.004A4.006 4.006 0 018 40V8c0-2.21 1.792-4 3.99-4zm18.973 26a3 3 0 110-6 3 3 0 010 6zM17.89 27.945c.455-1.012 1.374-1.121 2.046-.253l2.882 3.723a2.062 2.062 0 002.836.4l.578-.422a1.842 1.842 0 012.678.511l2.774 4.407c.587.933.167 1.689-.938 1.689H15.37c-1.105 0-1.634-.817-1.178-1.831l3.7-8.224z" fill="#DADADA"/></svg>
